X:541
T:Farewell to Whiskey (polka)
P:Not to be confused with the air by Gow...
R:Polka
S:ceolas~2.abc- unknown, photocopy
Z:Transcription:??, chords:Mike Long
M:2/4
L:1/16
K:D
"D"A3B A2FG | A2d2 f2d2 | A3B A2F2 | "G"G2F2 "A"E2D2 |\
"D"A3B A2FG | A2d2 f4 | "G"g2f2 "A"e2c2 | "D"d4 d4 :|
K:A
|:"A"e3f e2cd | e2a2 g2f2 | e3f e2c2 | "D"d2c2 "E"B2A2 |\
"A"e3f e2cd | e2a2 a4 | "D"d2c2 "E"B2G2 | "A"A2c2 A4:|
